src/lib/assets/icons/electronic.svg

<svg width="120" height="120" viewBox="0 0 120 120" fill="none" xmlns="http://www.w3.org/2000/svg">
<path d="M76.25 10C77.1562 10 78.0317 10.3282 78.7147 10.9238C79.3976 11.5195 79.8418 12.3422 79.965 13.24L80 13.75V25.375C83.6023 26.1123 86.9086 27.8914 89.5086 30.4914C92.1086 33.0914 93.8877 36.3977 94.625 40H106.25C107.2 40.0003 108.115 40.3612 108.809 41.0099C109.503 41.6585 109.925 42.5465 109.99 43.4944C110.055 44.4423 109.757 45.3795 109.158 46.1165C108.558 46.8535 107.701 47.3355 106.76 47.465L106.25 47.5H95V56.25H106.25C107.156 56.25 108.032 56.5782 108.715 57.1738C109.398 57.7695 109.842 58.5922 109.965 59.49L110 60C110 60.9062 109.672 61.7817 109.076 62.4647C108.481 63.1476 107.658 63.5918 106.76 63.715L106.25 63.75H95V72.5H106.25C107.156 72.5 108.032 72.8282 108.715 73.4238C109.398 74.0195 109.842 74.8422 109.965 75.74L110 76.25C110 77.1562 109.672 78.0317 109.076 78.7147C108.481 79.3976 107.658 79.8418 106.76 79.965L106.25 80H94.625C93.8886 83.6032 92.1099 86.9106 89.5098 89.5116C86.9098 92.1125 83.6029 93.8923 80 94.63V106.255C79.9997 107.205 79.6388 108.12 78.9901 108.814C78.3415 109.508 77.4535 109.93 76.5056 109.995C75.5577 110.06 74.6205 109.762 73.8835 109.163C73.1465 108.563 72.6645 107.706 72.535 106.765L72.5 106.255V95H63.745L63.75 106.255C63.75 107.161 63.4218 108.037 62.8262 108.72C62.2305 109.403 61.4078 109.847 60.51 109.97L60 110C59.0938 110 58.2183 109.672 57.5353 109.076C56.8524 108.481 56.4082 107.658 56.285 106.76L56.25 106.25L56.245 94.995H47.5V106.25C47.5 107.156 47.1718 108.032 46.5762 108.715C45.9805 109.398 45.1578 109.842 44.26 109.965L43.75 110C42.8438 110 41.9683 109.672 41.2853 109.076C40.6024 108.481 40.1582 107.658 40.035 106.76L40 106.25V94.625C36.3977 93.8877 33.0914 92.1086 30.4914 89.5086C27.8914 86.9086 26.1123 83.6023 25.375 80H13.75C12.7999 79.9997 11.8853 79.6388 11.191 78.9901C10.4968 78.3415 10.0746 77.4535 10.0099 76.5056C9.94511 75.5577 10.2426 74.6205 10.8422 73.8835C11.4417 73.1465 12.2988 72.6645 13.24 72.535L13.75 72.5L25 72.495V63.745L13.75 63.75C12.8438 63.75 11.9683 63.4218 11.2853 62.8262C10.6024 62.2305 10.1582 61.4078 10.035 60.51L10 60C10 59.0938 10.3282 58.2183 10.9238 57.5353C11.5195 56.8524 12.3422 56.4082 13.24 56.285L13.75 56.25L25 56.245V47.495L13.75 47.5C12.8438 47.5 11.9683 47.1718 11.2853 46.5762C10.6024 45.9805 10.1582 45.1578 10.035 44.26L10 43.75C10 42.8438 10.3282 41.9683 10.9238 41.2853C11.5195 40.6024 12.3422 40.1582 13.24 40.035L13.75 40L25.375 39.995C26.1132 36.3937 27.8927 33.0884 30.4926 30.4893C33.0925 27.8903 36.3984 26.1119 40 25.375V13.75C40.0003 12.7999 40.3612 11.8853 41.0099 11.191C41.6585 10.4968 42.5465 10.0746 43.4944 10.0099C44.4423 9.94511 45.3795 10.2426 46.1165 10.8422C46.8535 11.4417 47.3355 12.2988 47.465 13.24L47.5 13.75V24.995H56.245L56.25 13.75C56.25 12.8438 56.5782 11.9683 57.1738 11.2853C57.7695 10.6024 58.5922 10.1582 59.49 10.035L60 10C60.9062 10 61.7817 10.3282 62.4647 10.9238C63.1476 11.5195 63.5918 12.3422 63.715 13.24L63.75 13.75L63.745 24.995H72.5V13.75C72.4998 12.9296 72.7687 12.1317 73.2654 11.4788C73.7621 10.8258 74.4593 10.3538 75.25 10.135L75.74 10.035L76.25 10ZM76.25 32.5H43.75C40.7663 32.5 37.9048 33.6853 35.795 35.795C33.6853 37.9048 32.5 40.7663 32.5 43.75V76.25C32.5 79.2337 33.6853 82.0952 35.795 84.2049C37.9048 86.3147 40.7663 87.5 43.75 87.5H76.25C79.2337 87.5 82.0952 86.3147 84.2049 84.2049C86.3147 82.0952 87.5 79.2337 87.5 76.25V43.75C87.5 40.7663 86.3147 37.9048 84.2049 35.795C82.0952 33.6853 79.2337 32.5 76.25 32.5ZM60.025 45.025C64.0032 45.025 67.8186 46.6054 70.6316 49.4184C73.4446 52.2314 75.025 56.0468 75.025 60.025C75.025 64.0032 73.4446 67.8186 70.6316 70.6316C67.8186 73.4446 64.0032 75.025 60.025 75.025C56.0468 75.025 52.2314 73.4446 49.4184 70.6316C46.6054 67.8186 45.025 64.0032 45.025 60.025C45.025 56.0468 46.6054 52.2314 49.4184 49.4184C52.2314 46.6054 56.0468 45.025 60.025 45.025ZM60.025 52.525C58.0359 52.525 56.1282 53.3152 54.7217 54.7217C53.3152 56.1282 52.525 58.0359 52.525 60.025C52.525 62.0141 53.3152 63.9218 54.7217 65.3283C56.1282 66.7348 58.0359 67.525 60.025 67.525C62.0141 67.525 63.9218 66.7348 65.3283 65.3283C66.7348 63.9218 67.525 62.0141 67.525 60.025C67.525 58.0359 66.7348 56.1282 65.3283 54.7217C63.9218 53.3152 62.0141 52.525 60.025 52.525Z" fill="#6DD743"/>
</svg>

<svg xmlns="http://www.w3.org/2000/svg" width="120" height="120" fill="none" viewBox="0 0 120 120">
  <path
    fill="#6dd743"
    d="M76.25 10a3.75 3.75 0 0 1 3.715 3.24l.035.51v11.625A18.77 18.77 0 0 1 94.625 40h11.625a3.75 3.75 0 0 1 .51 7.465l-.51.035H95v8.75h11.25a3.751 3.751 0 0 1 3.715 3.24L110 60a3.748 3.748 0 0 1-3.24 3.715l-.51.035H95v8.75h11.25a3.751 3.751 0 0 1 3.715 3.24l.035.51a3.748 3.748 0 0 1-3.24 3.715l-.51.035H94.625A18.77 18.77 0 0 1 80 94.63v11.625a3.75 3.75 0 0 1-7.465.51l-.035-.51V95h-8.755l.005 11.255a3.751 3.751 0 0 1-3.24 3.715L60 110a3.748 3.748 0 0 1-3.715-3.24l-.035-.51-.005-11.255H47.5v11.255a3.751 3.751 0 0 1-3.24 3.715l-.51.035a3.748 3.748 0 0 1-3.715-3.24l-.035-.51V94.625A18.77 18.77 0 0 1 25.375 80H13.75a3.75 3.75 0 0 1-.51-7.465l.51-.035L25 72.495v-8.75l-11.25.005a3.75 3.75 0 0 1-3.715-3.24L10 60a3.75 3.75 0 0 1 3.24-3.715l.51-.035L25 56.245v-8.75l-11.25.005a3.75 3.75 0 0 1-3.715-3.24L10 43.75a3.75 3.75 0 0 1 3.24-3.715l.51-.035 11.625-.005A18.77 18.77 0 0 1 40 25.375V13.75a3.75 3.75 0 0 1 7.465-.51l.035.51v11.245h8.745l.005-11.245a3.75 3.75 0 0 1 3.24-3.715L60 10a3.75 3.75 0 0 1 3.715 3.24l.035.51-.005 11.245H72.5V13.75a3.75 3.75 0 0 1 2.75-3.615l.49-.1.51-.035Zm0 22.5h-32.5A11.25 11.25 0 0 0 32.5 43.75v32.5A11.25 11.25 0 0 0 43.75 87.5h32.5A11.25 11.25 0 0 0 87.5 76.25v-32.5A11.25 11.25 0 0 0 76.25 32.5ZM60.025 45.025a15 15 0 1 1 0 30 15 15 0 0 1 0-30Zm0 7.5a7.5 7.5 0 1 0 0 15 7.5 7.5 0 0 0 0-15Z"
  />
</svg>
